!!!COM: Palestrina, Giovanni Perluigi da
!!!OPR: Missa Jam Christus astra ascenderat
!!!OMD: Credo
!!!OTL: Crucifixus
**kern	**kern	**kern
*Itenor	*Icalto	*Icant
!Tenor	!Altus	!Cantus
*clefGv2	*clefG2	*clefG2
*k[b-]	*k[b-]	*k[b-]
*G:dor	*G:dor	*G:dor
*M4/2	*M4/2	*M4/2
=71	=71	=71
1.G	1r	0r
.	[1d	.
2B-	.	.
=72	=72	=72
2G	2d]	0r
2F	2f	.
2B-	2d	.
2c	2c	.
=73	=73	=73
2d	2f	0r
2e	2g	.
2f	2a	.
2d	2b	.
=74	=74	=74
4c	1cc	1.g
4d	.	.
4e	.	.
4f	.	.
2g	[1b-	.
4G	.	2b-
4A	.	.
=75	=75	=75
4B-	2b-]	2g
4c	.	.
2d	2a	2f
2G	2g	2b-
2A	[2f	2cc
=76	=76	=76
2B-	2f]	2dd
2c	2e	2ee
4F	1a	2ff
4G	.	.
4A	.	4ee
4B-	.	4dd
=77	=77	=77
2c	2.g	2ee
2G	.	1dd
.	4f	.
1A	1e	.
.	.	2cc#
=78	=78	=78
1d	2d	[0dd
.	2a	.
1r	2b-	.
.	2g	.
=79	=79	=79
1d	2b-	1dd]
.	2a	.
2e-	2.g	1r
2c	.	.
.	4f	.
=80	=80	=80
2e-	2g	2r
2d	2.a	2dd
2.c	.	2ee-
.	4g	.
.	[2g	2cc
4B-	.	.
=81	=81	=81
2c	2g]	2ee-
2d	2f#	2.dd
2G	1g	.
.	.	4cc
[2g	.	4b-
.	.	4a
=82	=82	=82
2g]	2r	2b-
2e	2g	2.cc
2f	2a	.
.	.	4a
2d	2b-	[2dd
=83	=83	=83
2f	2a	2dd]
2e	1g	2cc#
2.d	.	1dd
.	2f#	.
4c	.	.
=84	=84	=84
4B-	2r	1dd
4A	.	.
2G	1g	.
2r	.	2b-
2A	2e	2cc
=85	=85	=85
2F	2f	2a
1B-	2d	1dd
.	2f	.
2c	2e	[2cc
=86	=86	=86
1.G	1d	2cc]
.	.	4b-
.	.	4a
.	2r	1b-
2G	2g	.
=87	=87	=87
1d	2g	2a
.	2f	2dd
1r	2b-	2dd
.	2cc	2cc
=88	=88	=88
1r	1.b-	2ff
.	.	2gg
1d	.	[1ff
.	2a	.
=89	=89	=89
2d	2f	2ff]
2c	2g	2ee
2f	2a	[1dd
2g	[2b-	.
=90	=90	=90
1f	4b-]	2dd]
.	4a	.
.	2a	4cc
.	.	4b-
2e	2g	2cc
2d	2f	[2dd
=91	=91	=91
1e	1g	2dd]
.	.	2cc#
1d	2a	[1dd
.	2f	.
=92	=92	=92
2r	1g	1dd]
2B-	.	.
2c	1a	1r
2d	.	.
=93	=93	=93
4G	1b-	0r
4A	.	.
4B-	.	.
4c	.	.
4d	2.a	.
4e	.	.
[2f	.	.
.	4g	.
=94	=94	=94
2f]	4a	1cc
.	4b	.
2e	1cc	.
2f	.	1dd
2g	2b	.
=95	=95	=95
4c	1cc	1ee
4d	.	.
4e	.	.
4c	.	.
1d	2r	1ff
.	2f	.
=96	=96	=96
1c	2g	1ee
.	2a	.
1r	2d	2dd
.	2g	2b-
=97	=97	=97
0r	2a	2cc
.	2.b-	2dd
.	.	4g
.	4a	4a
.	4g	4b-
.	4f	4cc
=98	=98	=98
1B-	1b-	4dd
.	.	4ee
.	.	4ff
.	.	4dd
2c	1a	2ee
2d	.	2ff
=99	=99	=99
4G	1r	2gg
4A	.	.
4B-	.	2.ff
4c	.	.
4d	1f	.
4e	.	4ee
4f	.	[2dd
4d	.	.
=100	=100	=100
2e	2g	2dd]
2.f	2a	2cc
.	4d	[1ff
4e	4e	.
2d	4f	.
.	4g	.
=101	=101	=101
1c	4a	2ff]
.	4b	.
.	4cc	2ee
.	4a	.
2g	2b	2dd
2e	[2cc	2cc
=102	=102	=102
2f	2cc]	1dd
2g	2b	.
2e	1cc	2r
2f	.	2a
=103	=103	=103
2g	0r	2b-
2.f	.	2cc
.	.	2a
4e	.	.
2d	.	2b-
=104	=104	=104
2c	1e	2.cc
2A	.	.
.	.	4b-
2d	2f	2a
2G	2g	[2dd
=105	=105	=105
1A	2e	2dd]
.	2f	2cc
1B-	2g	2b-
.	[2f	2a
=106	=106	=106
1c	2f]	1g
.	2e	.
2r	1f	1a
2A	.	.
=107	=107	=107
2B-	2r	1g
2c	2e	.
2A	2f	1r
2B-	2g	.
=108	=108	=108
2c	2e	2r
2d	2f	2a
2G	2g	2b-
2A	2e	2cc
=109	=109	=109
2d	2.f	2a
2d	.	2b-
.	4g	.
2c	2a	2cc
2B-	2b-	2dd
=110	=110	=110
1e-	2b-	2g
.	2g	2gg
[1d	2b-	2.ff
.	4a	.
.	4g	4ee
=111	=111	=111
1d]	2f	2dd
.	2a	2ff
1G	1g	2ee
.	.	[2dd
=112	=112	=112
1A	1e	2dd]
.	.	2cc#
2.B-	2d	1dd
.	2f	.
4A	.	.
=113	=113	=113
2G	2g	2b-
2F#	2a	2a
[1G	2.b-	2.g
.	4a	4a
=114	=114	=114
2G]	2g	2b-
2G	2g	2b-
1d	1f#	2a
.	.	[2a
=115	=115	=115
2r	2r	2a]
1d	1f#	2a
.	.	1b
2d	2f#	.
=116	=116	=116
1e	1g	0cc
[1f	2a	.
.	2f	.
=117	=117	=117
1f]	1a	2r
.	.	2f
2r	2.cc	1a
2F	.	.
.	4b-	.
=118	=118	=118
1A	4a	1cc
.	4g	.
.	4f	.
.	4e	.
2B-	4d	1dd
.	4c	.
[2G	4B-	.
.	4A	.
=119	=119	=119
4G]	2G	1b-
4A	.	.
4B-	1g	.
4c	.	.
1d	.	2a
.	2f#	[2a
=120	=120	=120
1e-	2.g	2a]
.	.	1g
.	4a	.
2d	2b-	.
2d	[2a	2f#
=121	=121	=121
2c	4a]	1g
.	4g	.
2e-	1g	.
1d	.	1a
.	2f#	.
=122	=122	=122
0G	0g	0b
*-	*-	*-
!!!CDT: 1525/^1526/-1594/2/2
!!!OCY: Italia
!!!AGN: Mass (Paraphrase)
!!!AST: renaissance, vocal
!!!ASW: Hymn
!!!PWK: Masses, Book 5
!!!RNB: Cadence finals: D
!!!YOR: Le Opere Complete, v. 15, p. 20
!!!YOO: Rome, Italy: Fratelli Scalera
!!!END: 1992//
!!!EED: John Miller
!!!YEC: Copyright 2000, John Miller
!!!YEN: United States of America
!!!YEM: Rights to all derivative electronic formats reserved.
!!!YEM: Refer to licensing agreement for further details.
!!!YEM: This file must be accompanied by the licensing agreement.
!!!YEM: A copy of the licensing agreement may be found at http://www.music-cog.ohio-state.edu/HumdrumDatabases/Palestrina/license.txt
!!!EMD: converted to Humdrum by Bret Aarden
